images/6604833.svg

<?xml version="1.0" encoding="UTF-8"?>
<svg xmlns="http://www.w3.org/2000/svg" xmlns:xlink="http://www.w3.org/1999/xlink" width="300pt" height="300pt" viewBox="0 0 300 300" version="1.1">
<defs>
<g>
<symbol overflow="visible" id="glyph0-0">
<path style="stroke:none;" d="M 0.59375 2.125 L 0.59375 -8.46875 L 6.59375 -8.46875 L 6.59375 2.125 Z M 1.265625 1.453125 L 5.9375 1.453125 L 5.9375 -7.78125 L 1.265625 -7.78125 Z M 1.265625 1.453125 "/>
</symbol>
<symbol overflow="visible" id="glyph0-1">
<path style="stroke:none;" d="M 4.734375 -7.953125 C 3.867188 -7.953125 3.179688 -7.628906 2.671875 -6.984375 C 2.171875 -6.347656 1.921875 -5.472656 1.921875 -4.359375 C 1.921875 -3.265625 2.171875 -2.394531 2.671875 -1.75 C 3.179688 -1.113281 3.867188 -0.796875 4.734375 -0.796875 C 5.585938 -0.796875 6.265625 -1.113281 6.765625 -1.75 C 7.273438 -2.394531 7.53125 -3.265625 7.53125 -4.359375 C 7.53125 -5.472656 7.273438 -6.347656 6.765625 -6.984375 C 6.265625 -7.628906 5.585938 -7.953125 4.734375 -7.953125 Z M 4.734375 -8.90625 C 5.953125 -8.90625 6.925781 -8.492188 7.65625 -7.671875 C 8.394531 -6.847656 8.765625 -5.742188 8.765625 -4.359375 C 8.765625 -2.984375 8.394531 -1.882812 7.65625 -1.0625 C 6.925781 -0.238281 5.953125 0.171875 4.734375 0.171875 C 3.503906 0.171875 2.519531 -0.238281 1.78125 -1.0625 C 1.039062 -1.882812 0.671875 -2.984375 0.671875 -4.359375 C 0.671875 -5.742188 1.039062 -6.847656 1.78125 -7.671875 C 2.519531 -8.492188 3.503906 -8.90625 4.734375 -8.90625 Z M 4.734375 -8.90625 "/>
</symbol>
<symbol overflow="visible" id="glyph0-2">
<path style="stroke:none;" d="M 1.171875 -8.75 L 2.359375 -8.75 L 2.359375 -5.15625 L 6.65625 -5.15625 L 6.65625 -8.75 L 7.84375 -8.75 L 7.84375 0 L 6.65625 0 L 6.65625 -4.171875 L 2.359375 -4.171875 L 2.359375 0 L 1.171875 0 Z M 1.171875 -8.75 "/>
</symbol>
</g>
</defs>
<g id="surface32177">
<rect x="0" y="0" width="300" height="300" style="fill:rgb(100%,100%,100%);fill-opacity:1;stroke:none;"/>
<path style=" stroke:none;fill-rule:nonzero;fill:rgb(0%,0%,0%);fill-opacity:1;" d="M 234.777344 158.511719 L 264.507812 165.179688 L 264.992188 154.601562 Z M 234.777344 158.511719 "/>
<path style="fill:none;stroke-width:1.2;stroke-linecap:butt;stroke-linejoin:miter;stroke:rgb(0%,0%,0%);stroke-opacity:1;stroke-miterlimit:10;" d="M 234.777344 158.511719 L 226.265625 187.285156 "/>
<path style="fill:none;stroke-width:1.2;stroke-linecap:butt;stroke-linejoin:miter;stroke:rgb(100%,0%,0%);stroke-opacity:1;stroke-miterlimit:10;" d="M 228.9375 129.082031 L 231.859375 143.796875 "/>
<path style="fill:none;stroke-width:1.2;stroke-linecap:butt;stroke-linejoin:miter;stroke:rgb(0%,0%,0%);stroke-opacity:1;stroke-miterlimit:10;" d="M 231.859375 143.796875 L 234.777344 158.511719 "/>
<path style="fill:none;stroke-width:1.2;stroke-linecap:butt;stroke-linejoin:miter;stroke:rgb(0%,0%,0%);stroke-opacity:1;stroke-miterlimit:10;" d="M 226.265625 187.285156 L 205.359375 208.808594 "/>
<path style="fill:none;stroke-width:1.2;stroke-linecap:butt;stroke-linejoin:miter;stroke:rgb(0%,0%,0%);stroke-opacity:1;stroke-miterlimit:10;" d="M 205.359375 208.808594 L 176.847656 218.152344 "/>
<path style="fill:none;stroke-width:1.2;stroke-linecap:butt;stroke-linejoin:miter;stroke:rgb(0%,0%,0%);stroke-opacity:1;stroke-miterlimit:10;" d="M 176.847656 218.152344 L 147.257812 213.175781 "/>
<path style="fill:none;stroke-width:1.2;stroke-linecap:butt;stroke-linejoin:miter;stroke:rgb(0%,0%,0%);stroke-opacity:1;stroke-miterlimit:10;" d="M 147.257812 213.175781 L 123.371094 195.015625 "/>
<path style="fill:none;stroke-width:1.2;stroke-linecap:butt;stroke-linejoin:miter;stroke:rgb(0%,0%,0%);stroke-opacity:1;stroke-miterlimit:10;" d="M 149.140625 205.738281 L 130.03125 191.210938 "/>
<path style=" stroke:none;fill-rule:nonzero;fill:rgb(0%,0%,0%);fill-opacity:1;" d="M 110.660156 167.835938 L 118.574219 197.257812 L 128.167969 192.769531 Z M 110.660156 167.835938 "/>
<path style="fill:none;stroke-width:1.2;stroke-linecap:butt;stroke-linejoin:miter;stroke:rgb(0%,0%,0%);stroke-opacity:1;stroke-miterlimit:10;" d="M 110.660156 167.835938 L 81.730469 175.789062 "/>
<path style="fill:none;stroke-width:1.2;stroke-linecap:butt;stroke-linejoin:miter;stroke:rgb(0%,0%,0%);stroke-opacity:1;stroke-miterlimit:10;" d="M 112.035156 137.859375 L 110.660156 167.835938 "/>
<path style="fill:none;stroke-width:1.2;stroke-linecap:butt;stroke-linejoin:miter;stroke:rgb(0%,0%,0%);stroke-opacity:1;stroke-miterlimit:10;" d="M 81.730469 175.789062 L 65.222656 150.730469 "/>
<path style="fill:none;stroke-width:1.2;stroke-linecap:butt;stroke-linejoin:miter;stroke:rgb(0%,0%,0%);stroke-opacity:1;stroke-miterlimit:10;" d="M 65.222656 150.730469 L 83.953125 127.289062 "/>
<path style="fill:none;stroke-width:1;stroke-linecap:butt;stroke-linejoin:miter;stroke:rgb(0%,0%,0%);stroke-opacity:1;stroke-miterlimit:10;" d="M 65.222656 150.730469 L 65.222656 150.730469 M 62.296875 150.074219 L 62.25 151.117188 M 59.367188 149.417969 L 59.273438 151.5 M 56.441406 148.761719 L 56.296875 151.886719 M 53.515625 148.105469 L 53.324219 152.273438 M 50.585938 147.449219 L 50.347656 152.65625 M 47.660156 146.792969 L 47.371094 153.042969 M 44.730469 146.136719 L 44.398438 153.429688 M 41.804688 145.480469 L 41.421875 153.8125 M 38.878906 144.824219 L 38.449219 154.199219 M 35.949219 144.167969 L 35.472656 154.585938 M 35.492188 144.066406 L 35.007812 154.644531 "/>
<path style="fill:none;stroke-width:1;stroke-linecap:butt;stroke-linejoin:miter;stroke:rgb(0%,0%,0%);stroke-opacity:1;stroke-miterlimit:10;" d="M 112.035156 137.859375 L 112.035156 137.859375 M 109.457031 136.332031 L 109.085938 137.308594 M 106.875 134.804688 L 106.140625 136.753906 M 104.292969 133.273438 L 103.191406 136.203125 M 101.710938 131.746094 L 100.242188 135.648438 M 99.128906 130.21875 L 97.292969 135.097656 M 96.550781 128.6875 L 94.34375 134.542969 M 93.96875 127.160156 L 91.394531 133.992188 M 91.386719 125.632812 L 88.449219 133.4375 M 88.804688 124.101562 L 85.5 132.886719 M 86.222656 122.574219 L 82.550781 132.332031 M 85.820312 122.335938 L 82.089844 132.246094 "/>
<path style="fill:none;stroke-width:1.2;stroke-linecap:butt;stroke-linejoin:miter;stroke:rgb(0%,0%,0%);stroke-opacity:1;stroke-miterlimit:10;" d="M 112.035156 137.859375 L 127.183594 111.960938 "/>
<path style="fill:none;stroke-width:1.2;stroke-linecap:butt;stroke-linejoin:miter;stroke:rgb(0%,0%,0%);stroke-opacity:1;stroke-miterlimit:10;" d="M 127.183594 111.960938 L 152.632812 96.066406 "/>
<path style="fill:none;stroke-width:1;stroke-linecap:butt;stroke-linejoin:miter;stroke:rgb(0%,0%,0%);stroke-opacity:1;stroke-miterlimit:10;" d="M 127.183594 111.960938 L 127.183594 111.960938 M 125.429688 109.527344 L 124.703125 110.277344 M 123.671875 107.09375 L 122.21875 108.589844 M 121.917969 104.664062 L 119.738281 106.90625 M 120.160156 102.230469 L 117.253906 105.222656 M 118.40625 99.796875 L 114.773438 103.539062 M 116.648438 97.367188 L 112.289062 101.851562 M 114.890625 94.933594 L 109.808594 100.167969 M 113.136719 92.5 L 107.324219 98.484375 M 111.378906 90.070312 L 104.84375 96.800781 M 109.625 87.636719 L 102.359375 95.117188 M 109.351562 87.253906 L 101.972656 94.851562 "/>
<path style="fill:none;stroke-width:1.2;stroke-linecap:butt;stroke-linejoin:miter;stroke:rgb(0%,0%,0%);stroke-opacity:1;stroke-miterlimit:10;" d="M 152.632812 96.066406 L 182.554688 93.816406 "/>
<path style="fill:none;stroke-width:1.2;stroke-linecap:butt;stroke-linejoin:miter;stroke:rgb(0%,0%,0%);stroke-opacity:1;stroke-miterlimit:10;" d="M 156.15625 102.882812 L 180.089844 101.082031 "/>
<path style="fill:none;stroke-width:1.2;stroke-linecap:butt;stroke-linejoin:miter;stroke:rgb(0%,0%,0%);stroke-opacity:1;stroke-miterlimit:10;" d="M 182.554688 93.816406 L 210.09375 105.734375 "/>
<path style="fill:none;stroke-width:1.2;stroke-linecap:butt;stroke-linejoin:miter;stroke:rgb(0%,0%,0%);stroke-opacity:1;stroke-miterlimit:10;" d="M 212.902344 107.871094 L 221.980469 95.925781 "/>
<path style="fill:none;stroke-width:1.2;stroke-linecap:butt;stroke-linejoin:miter;stroke:rgb(100%,0%,0%);stroke-opacity:1;stroke-miterlimit:10;" d="M 221.980469 95.925781 L 231.0625 83.984375 "/>
<path style="fill:none;stroke-width:1.2;stroke-linecap:butt;stroke-linejoin:miter;stroke:rgb(0%,0%,0%);stroke-opacity:1;stroke-miterlimit:10;" d="M 207.28125 103.597656 L 216.363281 91.652344 "/>
<path style="fill:none;stroke-width:1.2;stroke-linecap:butt;stroke-linejoin:miter;stroke:rgb(100%,0%,0%);stroke-opacity:1;stroke-miterlimit:10;" d="M 216.363281 91.652344 L 225.441406 79.710938 "/>
<path style="fill:none;stroke-width:1.2;stroke-linecap:butt;stroke-linejoin:miter;stroke:rgb(0%,0%,0%);stroke-opacity:1;stroke-miterlimit:10;" d="M 210.09375 105.734375 L 219.515625 117.40625 "/>
<path style="fill:none;stroke-width:1.2;stroke-linecap:butt;stroke-linejoin:miter;stroke:rgb(100%,0%,0%);stroke-opacity:1;stroke-miterlimit:10;" d="M 219.515625 117.40625 L 228.9375 129.082031 "/>
<path style=" stroke:none;fill-rule:nonzero;fill:rgb(100%,100%,100%);fill-opacity:1;" d="M 223.25 74.847656 L 233.25 74.847656 L 233.25 88.847656 L 223.25 88.847656 Z M 223.25 74.847656 "/>
<g style="fill:rgb(100%,0%,0%);fill-opacity:1;">
  <use xlink:href="#glyph0-1" x="223.25" y="85.986328"/>
</g>
<path style=" stroke:none;fill-rule:nonzero;fill:rgb(100%,100%,100%);fill-opacity:1;" d="M 223.9375 122.082031 L 233.9375 122.082031 L 233.9375 136.082031 L 223.9375 136.082031 Z M 223.9375 122.082031 "/>
<g style="fill:rgb(100%,0%,0%);fill-opacity:1;">
  <use xlink:href="#glyph0-1" x="223.9375" y="133.220703"/>
</g>
<path style=" stroke:none;fill-rule:nonzero;fill:rgb(100%,100%,100%);fill-opacity:1;" d="M 86.660156 84.054688 L 105.660156 84.054688 L 105.660156 98.054688 L 86.660156 98.054688 Z M 86.660156 84.054688 "/>
<g style="fill:rgb(100%,0%,0%);fill-opacity:1;">
  <use xlink:href="#glyph0-2" x="86.660156" y="95.193359"/>
  <use xlink:href="#glyph0-1" x="95.683594" y="95.193359"/>
</g>
<path style=" stroke:none;fill-rule:nonzero;fill:rgb(100%,100%,100%);fill-opacity:1;" d="M 16.25 142.355469 L 35.25 142.355469 L 35.25 156.355469 L 16.25 156.355469 Z M 16.25 142.355469 "/>
<g style="fill:rgb(100%,0%,0%);fill-opacity:1;">
  <use xlink:href="#glyph0-2" x="16.25" y="153.494141"/>
  <use xlink:href="#glyph0-1" x="25.273438" y="153.494141"/>
</g>
</g>
</svg>

<svg xmlns="http://www.w3.org/2000/svg" xmlns:xlink="http://www.w3.org/1999/xlink" width="300pt" height="300pt" viewBox="0 0 300 300"><defs><symbol overflow="visible"><path d="M.594 2.125V-8.47h6V2.126zm.672-.672h4.671V-7.78h-4.67zm0 0"/></symbol><symbol overflow="visible" id="a"><path d="M4.734-7.953c-.867 0-1.554.324-2.062.97-.5.635-.75 1.51-.75 2.624 0 1.094.25 1.965.75 2.61.508.637 1.195.953 2.062.953.852 0 1.532-.316 2.032-.953.507-.645.765-1.516.765-2.61 0-1.113-.257-1.988-.764-2.624-.5-.645-1.18-.97-2.032-.97zm0-.953c1.22 0 2.192.414 2.922 1.234.74.824 1.11 1.93 1.11 3.313 0 1.376-.37 2.477-1.11 3.298C6.926-.24 5.953.17 4.734.17c-1.23 0-2.214-.41-2.953-1.234C1.04-1.882.673-2.984.673-4.36c0-1.382.367-2.488 1.11-3.312.738-.82 1.722-1.234 2.952-1.234zm0 0"/></symbol><symbol overflow="visible" id="b"><path d="M1.172-8.75H2.36v3.594h4.296V-8.75h1.188V0H6.656v-4.172H2.36V0H1.17zm0 0"/></symbol></defs><g><path fill="#fff" d="M0 0h300v300H0z"/><path d="M234.777 158.512l29.73 6.668.485-10.578zm0 0"/><path d="M234.777 158.512l-8.51 28.773" stroke-width="1.2" stroke="#000" stroke-miterlimit="10" fill="none"/><path d="M228.938 129.082l2.92 14.715" stroke-width="1.2" stroke="#f00" stroke-miterlimit="10" fill="none"/><path d="M231.86 143.797l2.917 14.715M226.266 187.285L205.36 208.81M205.36 208.81l-28.512 9.342M176.848 218.152l-29.59-4.976M147.258 213.176l-23.887-18.16M149.14 205.738l-19.11-14.527" stroke-width="1.2" stroke="#000" stroke-miterlimit="10" fill="none"/><path d="M110.66 167.836l7.914 29.422 9.594-4.488zm0 0"/><path d="M110.66 167.836l-28.93 7.953M112.035 137.86l-1.375 29.976M81.73 175.79l-16.507-25.06M65.223 150.73l18.73-23.44" stroke-width="1.2" stroke="#000" stroke-miterlimit="10" fill="none"/><path d="M65.223 150.73m-2.926-.656l-.047 1.043m-2.883-1.7l-.094 2.083m-2.832-2.738l-.143 3.125m-2.78-3.782l-.193 4.168m-2.738-4.824l-.238 5.206m-2.688-5.863l-.29 6.25m-2.64-6.906l-.332 7.293m-2.593-7.95l-.383 8.333m-2.543-8.99l-.43 9.376m-2.5-10.032l-.477 10.418m.02-10.52l-.485 10.58M112.035 137.86m-2.578-1.528l-.37.977m-2.212-2.505l-.734 1.95m-1.847-3.482l-1.102 2.93m-1.48-4.457l-1.468 3.902m-1.113-5.43l-1.837 4.88m-.742-6.41l-2.206 5.855m-.375-7.383l-2.575 6.832m-.008-8.36l-2.938 7.805m.355-9.335l-3.305 8.785m.723-10.313l-3.672 9.758m3.27-9.996l-3.73 9.91" stroke="#000" stroke-miterlimit="10" fill="none"/><path d="M112.035 137.86l15.15-25.9M127.184 111.96l25.45-15.894" stroke-width="1.2" stroke="#000" stroke-miterlimit="10" fill="none"/><path d="M127.184 111.96m-1.754-2.433l-.727.75m-1.03-3.183l-1.454 1.496m-.302-3.926l-2.18 2.242m.422-4.676l-2.906 2.993m1.152-5.426l-3.633 3.742m1.875-6.173l-4.36 4.485m2.603-6.918l-5.08 5.234m3.327-7.668l-5.813 5.984m4.055-8.414l-6.536 6.73m4.78-9.163l-7.265 7.48m6.992-7.863l-7.38 7.598" stroke="#000" stroke-miterlimit="10" fill="none"/><path d="M152.633 96.066l29.922-2.25M156.156 102.883l23.934-1.8M182.555 93.816l27.54 11.918M212.902 107.87l9.078-11.944" stroke-width="1.2" stroke="#000" stroke-miterlimit="10" fill="none"/><path d="M221.98 95.926l9.083-11.942" stroke-width="1.2" stroke="#f00" stroke-miterlimit="10" fill="none"/><path d="M207.28 103.598l9.083-11.946" stroke-width="1.2" stroke="#000" stroke-miterlimit="10" fill="none"/><path d="M216.363 91.652l9.078-11.94" stroke-width="1.2" stroke="#f00" stroke-miterlimit="10" fill="none"/><path d="M210.094 105.734l9.422 11.672" stroke-width="1.2" stroke="#000" stroke-miterlimit="10" fill="none"/><path d="M219.516 117.406l9.422 11.676" stroke-width="1.2" stroke="#f00" stroke-miterlimit="10" fill="none"/><path d="M223.25 74.848h10v14h-10zm0 0" fill="#fff"/><use xlink:href="#a" x="223.25" y="85.986" fill="#f00"/><path d="M223.938 122.082h10v14h-10zm0 0" fill="#fff"/><use xlink:href="#a" x="223.938" y="133.221" fill="#f00"/><path d="M86.66 84.055h19v14h-19zm0 0" fill="#fff"/><g fill="#f00"><use xlink:href="#b" x="86.66" y="95.193"/><use xlink:href="#a" x="95.684" y="95.193"/></g><path d="M16.25 142.355h19v14h-19zm0 0" fill="#fff"/><g fill="#f00"><use xlink:href="#b" x="16.25" y="153.494"/><use xlink:href="#a" x="25.273" y="153.494"/></g></g></svg>
